website/public/Images/svg/lock.svg

<svg width="24" height="32" viewBox="0 0 24 32" fill="none" xmlns="http://www.w3.org/2000/svg">
<path d="M22.2857 12.8243H6.85714V8.19023C6.85714 5.79327 8.57143 3.71591 10.9714 3.23652C14.2286 2.75712 17.1429 4.99428 17.1429 8.03043C17.1429 8.98921 18 9.6284 18.8571 9.6284C19.7143 9.6284 20.5714 8.98921 20.5714 8.03043C20.5714 3.39631 16.2857 -0.438818 11.1429 0.0405735C6.68571 0.519965 3.42857 4.1953 3.42857 8.35002V12.8243H1.71429C0.857143 12.8243 0 13.4635 0 14.4223V30.402C0 31.201 0.857143 32 1.71429 32H22.2857C23.3143 32 24 31.201 24 30.402V14.4223C24 13.4635 23.3143 12.8243 22.2857 12.8243ZM13.7143 23.5308V25.6081C13.7143 26.5669 13.0286 27.2061 12 27.2061C10.9714 27.2061 10.2857 26.5669 10.2857 25.6081V23.5308C9.25714 22.8916 8.57143 21.9328 8.57143 20.8142C8.57143 18.7368 10.6286 17.2987 12.8571 17.7781C14.0571 18.0976 15.0857 19.0564 15.4286 20.175C15.7714 21.6132 14.9143 22.8916 13.7143 23.5308Z" fill="url(#paint0_linear)"/>
<defs>
<linearGradient id="paint0_linear" x1="12" y1="0" x2="12" y2="32" gradientUnits="userSpaceOnUse">
<stop stop-color="#E5632A"/>
<stop offset="1" stop-color="#FFC4AA"/>
</linearGradient>
</defs>
</svg>

<svg xmlns="http://www.w3.org/2000/svg" width="24" height="32" fill="none" xmlns:v="https://vecta.io/nano"><path d="M22.286 12.824H6.857V8.19c0-2.397 1.714-4.474 4.114-4.954 3.257-.479 6.172 1.758 6.172 4.794 0 .959.857 1.598 1.714 1.598s1.714-.639 1.714-1.598c0-4.634-4.286-8.469-9.429-7.99C6.686.52 3.429 4.195 3.429 8.35v4.474H1.714c-.857 0-1.714.639-1.714 1.598v15.98C0 31.201.857 32 1.714 32h20.571C23.314 32 24 31.201 24 30.402v-15.98c0-.959-.686-1.598-1.714-1.598zm-8.571 10.707v2.077c0 .959-.686 1.598-1.714 1.598s-1.714-.639-1.714-1.598v-2.077c-1.029-.639-1.714-1.598-1.714-2.717 0-2.077 2.057-3.515 4.286-3.036 1.2.32 2.229 1.278 2.571 2.397.343 1.438-.514 2.717-1.714 3.356z" fill="url(#A)"/><defs><linearGradient id="A" x1="12" y1="0" x2="12" y2="32" gradientUnits="userSpaceOnUse"><stop stop-color="#e5632a"/><stop offset="1" stop-color="#ffc4aa"/></linearGradient></defs></svg>
